X:7
T:Eileen Og, the Pride of Petravore
C:William Percy French (1854 -1920)
S:Flos Headford <flos:madasafish.com> tradtunes 2010-4-7
C:Trad arr. P J Headford
R:hp 32
Z:PJHeadford
M:4/4
L:1/8
Q:2/4=90
K:Em
|: E2E>F G>FG>A | B>cB>A G>FE>G | D2D>E F2F>G | A>BA>G F>ED2 |\
E2E>F G>FG>A | B>cB>A G>FG>A | (3BBB B>c B>AG>F | G2E2 E4 :|] 
|: e2e2 e2f>e | d>BG>A B2G>A | B2B>c B>AG>F | G>FE>D E4 |\
e2e2 e2f>e | d>BG>A B2G>A | (3BBB B>c B>AG>F | G2E2 E4 :|] 

